X: 1760
T: Sevdiğimden Dün...
C: Ahmet Avni Konuk
O: Turkey
F: http://compmusic.upf.edu/node/140
N: hisarbuselik--kupe--agiraksak--sevdigimden--ahmet_avni_konuk
N: makam= hisarbuselik
N: form= kupe
N: usul= agiraksak = 9/4
M: 9/4
L: 1/16
K: C _1/4B   
Q: 1/4=60
%%MIDI tuningsystem comma53
e8 z2e4e2 ^g2f2 f2e2 e8 ^d4  | e2f2 e4 f4 ^g4 a3g f2g2 a8 g2=b2  | 
w:  Ah  sev di ğim *  *  *  den   |  dün  *  *  Hi *  sar *  *  *  da   | 
a8 z2e4e2 e8 f3e ^d2e2 d4  | e2f2 f2e2 =b4 a2^g2 g2f2 f2e2 e2f2 e3^d c2d2  | 
w:  *  Bû se lik  et  |  tim  *  *  *  *  re *  câ    | 
e8 z2e4e2 e8 f2e2 f4 ^g4  | e4 e2f2 d4 e4 c4 d4 d2c4=B2 c3B  | 
w:  *  Dön dü  va' din  |  den  *  *  ol  *  dil *  ber   | 
A6z2 z2c2 =B2c2 d4 e4 e2f2 e2d2 c3B  | \
w:  *  et *  me di  *  ah  | 
A4 A2=B2 c2d2 c2B2 B2A2 A2^G2 A8 z4  | 
w:  de  *  *  *  *  ve *  fâ    | 
|


